images/type_library.svg

<svg enable-background="new 0 0 94.517 100" viewBox="0 0 94.517 100" xmlns="http://www.w3.org/2000/svg"><path d="m46.834 29.254c7.994 0 14.448-6.569 14.448-14.64 0-8.082-6.454-14.614-14.448-14.614s-14.456 6.532-14.456 14.614c0 8.071 6.462 14.64 14.456 14.64z"/><path d="m60.891 32.813c6.61.236 9.392 5.591 9.392 5.591l21.341 29.608c.883 1.313 1.398 2.92 1.398 4.654 0 4.604-3.688 8.342-8.243 8.342-1.09 0-2.081-.244-3.022-.604l-12.883-3.638v12.997h-44.724v-12.996l-12.884 3.636c-.908.362-1.931.606-3.03.606-4.556 0-8.236-3.738-8.236-8.342 0-1.735.509-3.343 1.431-4.656l21.327-29.607s2.799-5.355 9.386-5.59h28.747zm-14.374 47.875 16.688-5.606-.365-.074c-11.525-3.416-7.046-18.806 4.453-15.372l1.583.557v-17.37l-22.358 7.38-22.368-7.381v17.367l1.575-.556c11.518-3.435 16.005 11.955 4.48 15.371l-.375.077z"/><path d="m92.458 100c1.143 0 2.06-.925 2.06-2.079 0-1.161-.917-2.08-2.06-2.08h-90.258c-1.118 0-2.058.919-2.058 2.08 0 1.153.94 2.079 2.058 2.079z"/></svg>

<?xml version="1.0" encoding="utf-8"?><!DOCTYPE svg PUBLIC "-//W3C//DTD SVG 1.0//EN" "http://www.w3.org/TR/2001/REC-SVG-20010904/DTD/svg10.dtd"><svg version="1.0" xmlns="http://www.w3.org/2000/svg" xmlns:xlink="http://www.w3.org/1999/xlink" x="0px" y="0px" viewBox="0 0 94.517 100" enable-background="new 0 0 94.517 100" xml:space="preserve"><path d="M46.834,29.254c7.994,0,14.448-6.569,14.448-14.64C61.282,6.532,54.828,0,46.834,0S32.378,6.532,32.378,14.614
	C32.378,22.685,38.84,29.254,46.834,29.254z"></path><path d="M60.891,32.813c6.61,0.236,9.392,5.591,9.392,5.591l21.341,29.608c0.883,1.313,1.398,2.92,1.398,4.654
	c0,4.604-3.688,8.342-8.243,8.342c-1.09,0-2.081-0.244-3.022-0.604l-12.883-3.638v12.997H24.15V76.767l-12.884,3.636
	c-0.908,0.362-1.931,0.606-3.03,0.606C3.68,81.009,0,77.271,0,72.667c0-1.735,0.509-3.343,1.431-4.656l21.327-29.607
	c0,0,2.799-5.355,9.386-5.59H60.891L60.891,32.813z M46.517,80.688L46.517,80.688l16.688-5.606l-0.365-0.074
	c-11.525-3.416-7.046-18.806,4.453-15.372l1.583,0.557V42.823l-22.358,7.38L24.15,42.822v17.367l1.575-0.556
	c11.518-3.435,16.005,11.955,4.48,15.371l-0.375,0.077L46.517,80.688L46.517,80.688z"></path><path d="M92.458,100c1.143,0,2.06-0.925,2.06-2.079l0,0c0-1.161-0.917-2.08-2.06-2.08H2.2c-1.118,0-2.058,0.919-2.058,2.08l0,0
	c0,1.153,0.94,2.079,2.058,2.079H92.458z"></path></svg>
